themes/ColwichTheme/static/images/icons/meal.svg

<svg viewBox="0 0 640 512" xmlns="http://www.w3.org/2000/svg"><path d="m130.3 233.8h-10.3v238.2c0 6.4-2.5 12.5-7.9 16.1-3.6 5.4-9.7 7.9-16.1 7.9-6.37 0-12.47-2.5-16.97-7.9-4.5-3.6-7.03-9.7-7.03-16.1v-238.2h-10.14c-18-3.5-34.22-13.1-46.76-27.2-6.093-8.8-10.993-19-13.422-29.9-2.4301-10.9-2.3255-22.2.306-33.1l25.886-116.85c.76-3.27 2.69-6.16 5.43-8.11 2.74-1.94 6.1-2.81 9.45-2.45 3.34.37 6.43 1.95 8.68 4.45 2.26 2.49 3.52 5.73 3.55 9.09v123.47h14.91l14.65-126.99c.34-2.81 1.69-5.4 3.8-7.28 2.12-1.88 4.85-2.92 7.68-2.92 2.82 0 5.58 1.04 7.68 2.92s3.5 4.47 3.8 7.28l14.6 126.99h14.9v-123.47c.1-3.36 1.3-6.6 3.6-9.09 2.2-2.5 5.3-4.08 8.7-4.45 3.3-.36 5.8.51 9.4 2.45 2.7 1.95 4.7 4.84 5.4 8.11l25.9 116.85c2.7 10.8 2.8 22.1.4 33s-7.3 21.1-14.2 29.9c-11.7 14.1-27.9 23.8-45.9 27.3zm494-215.72c3.1 1.33 6 3.27 8.3 5.71 2.4 2.43 4.3 5.31 5.6 8.47 1.2 3.17 1.8 6.54 1.8 9.95v429.79c0 6.4-2.5 12.5-7.9 16.1-3.6 5.4-9.7 7.9-16.1 7.9s-12.5-2.5-17-7.9c-4.5-3.6-7-9.7-7-16.1v-152h-48c-8.5 0-16.6-3.4-22.6-9.4s-9.4-14.1-9.4-22.6l.4-129.8c-.2-29.9 8.4-59.2 24.9-84.18 16.4-24.97 39.9-44.51 67.5-56.13 3-1.25 6.3-2.79 9.6-1.89 3.4.03 6.8.74 9.9 2.07z"/><path d="m221 136.5-14.1-63.64c42.6-30.12 94.4-44.37 146.5-40.28 52 4.09 100.9 26.27 138.3 62.68-7.3 20.14-11.1 41.44-11.2 62.84v30.2c-10.9-23.4-27.2-43.8-47.7-59.5-20.5-15.6-44.5-26.1-69.9-30.49-25.4-4.38-51.5-2.52-76 5.39-24.5 7.9-46.8 21.7-64.8 40.1-.4-2.4-.3-4.8-1.1-7.3zm205.5 29c24 24 37.5 56.6 37.5 89.6 0 26.2-7.5 51-21.6 72-14 21.1-34 37.5-58.3 47.2-22.5 9.6-48.2 12.2-73.1 7.2-24.8-4.9-47.6-17.1-65.5-35s-30.1-40.7-35-66.4c-5-24-2.4-49.7 7.2-73.1 9.7-23.4 26.1-43.4 47.2-57.4 21-14.1 45.8-22.5 71.1-22.5 33.9 0 66.5 14.4 90.5 38.4zm111.9 186.1c-16.7 35.6-42.5 66.1-74.8 88.5s-70 36-109.1 39.2c-39.2 3.2-78.6-3.9-114.1-20.7s-66-42.7-88.4-75v-122.7c8.7-3.1 17-7.3 24.8-12.5-.2 1.7-.8 5-.8 6.7-.9 38.3 13 74.5 36.9 103.3 24 28.7 57.2 48.1 94 54.9s74.7.4 107.3-18c32.6-19.2 57.7-47.5 70.9-82.5 3.2 7.6 7 14.5 13.7 20.4 10.6 10.6 24.7 17.1 39.6 18.4z" opacity=".4"/></svg>

<svg xmlns="http://www.w3.org/2000/svg" viewBox="0 0 640 512"><!--! Font Awesome Pro 6.1.1 by @fontawesome - https://fontawesome.com License - https://fontawesome.com/license (Commercial License) Copyright 2022 Fonticons, Inc. --><defs><style>.fa-secondary{opacity:.4}</style></defs><path class="fa-primary" d="M130.3 233.8H120V472C120 478.4 117.5 484.5 112.1 488.1C108.5 493.5 102.4 496 96 496C89.63 496 83.53 493.5 79.03 488.1C74.53 484.5 72 478.4 72 472V233.8H61.86C43.86 230.3 27.64 220.7 15.1 206.6C9.007 197.8 4.107 187.6 1.678 176.7C-.7521 165.8-.6475 154.5 1.984 143.6L27.87 26.75C28.63 23.48 30.56 20.59 33.3 18.64C36.04 16.7 39.4 15.83 42.75 16.19C46.09 16.56 49.18 18.14 51.43 20.64C53.69 23.13 54.95 26.37 54.98 29.73V153.2H69.89L84.54 26.21C84.88 23.4 86.23 20.81 88.34 18.93C90.46 17.05 93.19 16.01 96.02 16.01C98.84 16.01 101.6 17.05 103.7 18.93C105.8 20.81 107.2 23.4 107.5 26.21L122.1 153.2H137V29.73C137.1 26.37 138.3 23.13 140.6 20.64C142.8 18.14 145.9 16.56 149.3 16.19C152.6 15.83 155.1 16.7 158.7 18.64C161.4 20.59 163.4 23.48 164.1 26.75L190 143.6C192.7 154.4 192.8 165.7 190.4 176.6C188 187.5 183.1 197.7 176.2 206.5C164.5 220.6 148.3 230.3 130.3 233.8zM624.3 18.08C627.4 19.41 630.3 21.35 632.6 23.79C635 26.22 636.9 29.1 638.2 32.26C639.4 35.43 640 38.8 640 42.21V472C640 478.4 637.5 484.5 632.1 488.1C628.5 493.5 622.4 496 616 496C609.6 496 603.5 493.5 599 488.1C594.5 484.5 592 478.4 592 472V320H544C535.5 320 527.4 316.6 521.4 310.6C515.4 304.6 512 296.5 512 288L512.4 158.2C512.2 128.3 520.8 99 537.3 74.02C553.7 49.05 577.2 29.51 604.8 17.89C607.8 16.64 611.1 15.1 614.4 16C617.8 16.03 621.2 16.74 624.3 18.07V18.08z"/><path class="fa-secondary" d="M221 136.5L206.9 72.86C249.5 42.74 301.3 28.49 353.4 32.58C405.4 36.67 454.3 58.85 491.7 95.26C484.4 115.4 480.6 136.7 480.5 158.1V188.3C469.6 164.9 453.3 144.5 432.8 128.8C412.3 113.2 388.3 102.7 362.9 98.31C337.5 93.93 311.4 95.79 286.9 103.7C262.4 111.6 240.1 125.4 222.1 143.8C221.7 141.4 221.8 139 221 136.5zM426.5 165.5C450.5 189.5 464 222.1 464 255.1C464 281.3 456.5 306.1 442.4 327.1C428.4 348.2 408.4 364.6 384.1 374.3C361.6 383.9 335.9 386.5 311 381.5C286.2 376.6 263.4 364.4 245.5 346.5C227.6 328.6 215.4 305.8 210.5 280.1C205.5 256.1 208.1 230.4 217.7 207C227.4 183.6 243.8 163.6 264.9 149.6C285.9 135.5 310.7 127.1 336 127.1C369.9 127.1 402.5 141.5 426.5 165.5zM538.4 351.6C521.7 387.2 495.9 417.7 463.6 440.1C431.3 462.5 393.6 476.1 354.5 479.3C315.3 482.5 275.9 475.4 240.4 458.6C204.9 441.8 174.4 415.9 152 383.6V260.9C160.7 257.8 169 253.6 176.8 248.4C176.6 250.1 176 253.4 176 255.1C175.1 293.4 189 329.6 212.9 358.4C236.9 387.1 270.1 406.5 306.9 413.3C343.7 420.1 381.6 413.7 414.2 395.3C446.8 376.1 471.9 347.8 485.1 312.8C488.3 320.4 492.1 327.3 498.8 333.2C509.4 343.8 523.5 350.3 538.4 351.6H538.4z"/></svg>
